components/Common/Svg/svgs/titledKotlin.svg

<svg
  width="96"
  height="137"
  viewBox="0 0 96 137"
  fill="none"
  xmlns="http://www.w3.org/2000/svg"
>
  <path
    d="M27.464 120.592L33.26 127H31.244L25.952 121.078V127H24.314V114.31H25.952V120.196L31.262 114.31H33.26L27.464 120.592ZM39.3605 116.992C40.3085 116.992 41.1545 117.196 41.8985 117.604C42.6545 118.012 43.2425 118.6 43.6625 119.368C44.0945 120.136 44.3105 121.036 44.3105 122.068C44.3105 123.1 44.0945 124 43.6625 124.768C43.2425 125.524 42.6545 126.106 41.8985 126.514C41.1545 126.922 40.3085 127.126 39.3605 127.126C38.4125 127.126 37.5605 126.922 36.8045 126.514C36.0605 126.106 35.4725 125.524 35.0405 124.768C34.6085 124 34.3925 123.1 34.3925 122.068C34.3925 121.036 34.6085 120.136 35.0405 119.368C35.4725 118.6 36.0605 118.012 36.8045 117.604C37.5605 117.196 38.4125 116.992 39.3605 116.992ZM39.3605 118.432C38.7725 118.432 38.2265 118.564 37.7225 118.828C37.2305 119.092 36.8285 119.5 36.5165 120.052C36.2165 120.592 36.0665 121.264 36.0665 122.068C36.0665 122.86 36.2165 123.532 36.5165 124.084C36.8285 124.624 37.2305 125.026 37.7225 125.29C38.2265 125.554 38.7725 125.686 39.3605 125.686C39.9485 125.686 40.4885 125.554 40.9805 125.29C41.4845 125.026 41.8865 124.624 42.1865 124.084C42.4985 123.532 42.6545 122.86 42.6545 122.068C42.6545 121.264 42.4985 120.592 42.1865 120.052C41.8865 119.5 41.4845 119.092 40.9805 118.828C40.4885 118.564 39.9485 118.432 39.3605 118.432ZM51.1609 125.56V127H49.9369C48.9289 127 48.1729 126.76 47.6689 126.28C47.1769 125.8 46.9309 124.996 46.9309 123.868V118.54H45.4549V117.118H46.9309V114.652H48.5869V117.118H51.1429V118.54H48.5869V123.904C48.5869 124.54 48.7009 124.978 48.9289 125.218C49.1689 125.446 49.5769 125.56 50.1529 125.56H51.1609ZM54.7977 113.68V127H53.1597V113.68H54.7977ZM57.1432 114.22C57.1432 113.92 57.2452 113.68 57.4492 113.5C57.6532 113.308 57.9232 113.212 58.2592 113.212C58.5952 113.212 58.8652 113.308 59.0692 113.5C59.2732 113.68 59.3752 113.92 59.3752 114.22C59.3752 114.52 59.2732 114.766 59.0692 114.958C58.8652 115.138 58.5952 115.228 58.2592 115.228C57.9232 115.228 57.6532 115.138 57.4492 114.958C57.2452 114.766 57.1432 114.52 57.1432 114.22ZM59.0692 117.118V127H57.4312V117.118H59.0692ZM66.9047 116.956C68.0567 116.956 68.9867 117.328 69.6947 118.072C70.4027 118.804 70.7567 119.866 70.7567 121.258V127H69.1187V121.402C69.1187 120.418 68.8667 119.662 68.3627 119.134C67.8587 118.606 67.1747 118.342 66.3107 118.342C65.4107 118.342 64.6907 118.636 64.1507 119.224C63.6107 119.8 63.3407 120.646 63.3407 121.762V127H61.7027V117.118H63.3407V119.458C63.5927 118.654 64.0367 118.036 64.6727 117.604C65.3207 117.172 66.0647 116.956 66.9047 116.956Z"
    fill="#A0A0A0"
  ></path>
  <path
    d="M48.6086 21L22 48.457V73L48.5706 46.8852L75 21H48.6086Z"
    fill="url(#paint0_linear)"
  ></path>
  <path
    d="M22 73L48.5706 47L75 73H22Z"
    fill="url(#paint1_linear)"
  ></path>
  <path
    d="M22 21H49L22 49V21Z"
    fill="url(#paint2_linear)"
  ></path>
  <defs>
    <linearGradient
      id="paint0_linear"
      x1="15.9933"
      y1="65.9497"
      x2="57.6825"
      y2="23.462"
      gradientUnits="userSpaceOnUse"
    >
      <stop stop-color="#4F4F4F"></stop>
      <stop offset="1" stop-color="#AEAEAE"></stop>
    </linearGradient>
    <linearGradient
      id="paint1_linear"
      x1="40.6924"
      y1="80.6083"
      x2="62.5559"
      y2="58.2259"
      gradientUnits="userSpaceOnUse"
    >
      <stop stop-color="#575555"></stop>
      <stop offset="1" stop-color="#ACAAAA"></stop>
    </linearGradient>
    <linearGradient
      id="paint2_linear"
      x1="19.5335"
      y1="37.4322"
      x2="39.1109"
      y2="17.5796"
      gradientUnits="userSpaceOnUse"
    >
      <stop stop-color="#8F8F8F"></stop>
      <stop offset="1" stop-color="#727272"></stop>
    </linearGradient>
  </defs>
</svg>

<svg width="96" height="137" viewBox="0 0 96 137" fill="none" xmlns="http://www.w3.org/2000/svg"><path d="M27.464 120.592 33.26 127h-2.016l-5.292-5.922V127h-1.638v-12.69h1.638v5.886l5.31-5.886h1.998l-5.796 6.282Zm11.897-3.6c.948 0 1.794.204 2.538.612a4.307 4.307 0 0 1 1.764 1.764c.431.768.648 1.668.648 2.7 0 1.032-.217 1.932-.648 2.7a4.336 4.336 0 0 1-1.764 1.746c-.745.408-1.59.612-2.538.612-.948 0-1.8-.204-2.556-.612a4.486 4.486 0 0 1-1.764-1.746c-.432-.768-.648-1.668-.648-2.7 0-1.032.215-1.932.648-2.7a4.454 4.454 0 0 1 1.764-1.764c.755-.408 1.608-.612 2.556-.612Zm0 1.44c-.588 0-1.134.132-1.639.396-.492.264-.894.672-1.206 1.224-.3.54-.45 1.212-.45 2.016 0 .792.15 1.464.45 2.016.313.54.715.942 1.206 1.206.505.264 1.05.396 1.639.396.588 0 1.128-.132 1.62-.396.503-.264.905-.666 1.206-1.206.312-.552.468-1.224.468-2.016 0-.804-.157-1.476-.468-2.016-.3-.552-.703-.96-1.206-1.224a3.372 3.372 0 0 0-1.62-.396Zm11.8 7.128V127h-1.224c-1.008 0-1.764-.24-2.268-.72-.492-.48-.738-1.284-.738-2.412v-5.328h-1.476v-1.422h1.476v-2.466h1.656v2.466h2.556v1.422h-2.556v5.364c0 .636.114 1.074.342 1.314.24.228.648.342 1.224.342h1.008Zm3.637-11.88V127H53.16v-13.32h1.638Zm2.345.54c0-.3.102-.54.306-.72.204-.192.474-.288.81-.288.336 0 .606.096.81.288.204.18.306.42.306.72s-.102.546-.306.738c-.204.18-.474.27-.81.27-.336 0-.606-.09-.81-.27a.969.969 0 0 1-.306-.738Zm1.926 2.898V127h-1.638v-9.882h1.638Zm7.836-.162c1.152 0 2.082.372 2.79 1.116.708.732 1.062 1.794 1.062 3.186V127h-1.638v-5.598c0-.984-.252-1.74-.756-2.268-.504-.528-1.188-.792-2.052-.792-.9 0-1.62.294-2.16.882-.54.576-.81 1.422-.81 2.538V127h-1.638v-9.882h1.638v2.34c.252-.804.696-1.422 1.332-1.854.648-.432 1.392-.648 2.232-.648Z" fill="#A0A0A0"/><path d="M48.609 21 22 48.457V73l26.57-26.115L75 21H48.609Z" fill="url(#a)"/><path d="m22 73 26.57-26L75 73H22Z" fill="url(#b)"/><path d="M22 21h27L22 49V21Z" fill="url(#c)"/><defs><linearGradient id="a" x1="15.993" y1="65.95" x2="57.682" y2="23.462" gradientUnits="userSpaceOnUse"><stop stop-color="#4F4F4F"/><stop offset="1" stop-color="#AEAEAE"/></linearGradient><linearGradient id="b" x1="40.692" y1="80.608" x2="62.556" y2="58.226" gradientUnits="userSpaceOnUse"><stop stop-color="#575555"/><stop offset="1" stop-color="#ACAAAA"/></linearGradient><linearGradient id="c" x1="19.534" y1="37.432" x2="39.111" y2="17.58" gradientUnits="userSpaceOnUse"><stop stop-color="#8F8F8F"/><stop offset="1" stop-color="#727272"/></linearGradient></defs></svg>
